storage/app/icons/tabler/filled/file-horizontal.svg

<!--
unicode: "1011c"
version: "3.29"
-->
<svg
  xmlns="http://www.w3.org/2000/svg"
  width="24"
  height="24"
  viewBox="0 0 24 24"
  fill="currentColor"
>
  <path d="M22 12l-.007 -.117a1 1 0 0 0 -.876 -.876l-.117 -.007h-4l-.15 -.005a2 2 0 0 1 -1.844 -1.838l-.006 -.157v-4l-.007 -.117a1 1 0 0 0 -.876 -.876l-.117 -.007h-9a3 3 0 0 0 -2.995 2.824l-.005 .176v10a3 3 0 0 0 2.824 2.995l.176 .005h14a3 3 0 0 0 2.995 -2.824l.005 -.176z" />
  <path d="M17 5v4l4.001 .001z" />
</svg>

<svg xmlns="http://www.w3.org/2000/svg" width="24" height="24" fill="currentColor" viewBox="0 0 24 24"><path d="m22 12-.007-.117a1 1 0 0 0-.876-.876L21 11h-4l-.15-.005a2 2 0 0 1-1.844-1.838L15 9V5l-.007-.117a1 1 0 0 0-.876-.876L14 4H5a3 3 0 0 0-2.995 2.824L2 7v10a3 3 0 0 0 2.824 2.995L5 20h14a3 3 0 0 0 2.995-2.824L22 17z"/><path d="M17 5v4l4.001.001z"/></svg>
